X:1448
T:Coming Over The Hills
M:C|
L:1/8
N:"collected by Stack"
B:O'Neill's 1448
Z:"Transcribed by Bob Safranek, rjs@gsp.org"
K:G
BdcA    d2 cA|DG 3AGFG  ABcA|BdcA G2 GF|DF 3GFEF ABcA :|
K:D
Addc    d2 dc|Ad 3edcd efge|fdec d2 dc|AGFG          ABcB|
Adedc d2 dc|Ad 3edcd efge|faef d2 dc|AGFG          ABcA|]
